X:1
T:James Gibb editions
T:Come t'aggio lasciato - Azzaiolo
T:#
%%score [ 1 2 3 4 ]
L:1/8
Q:1/4=108
M:3/4
K:F
V:1 treble nm="Soprano" snm="S"
V:2 treble nm="Alto" snm="A"
V:3 treble-8 nm="Tenor" snm="T"
V:4 bass nm="Bass" snm="B"
V:1
"^Come t'aggio lasciato""^Filippo Azzaiolo\n(C16th)" c6 | A4 B2 | G4 G2 | F6 | A2 G2 F2 | E6 | F6 | %7
w: ~Co-|me t'ag-|gio la-|sciat',|o vi- ta|mi-|a,|
w: ~Ahi-|mè ch'io|non pen-|sa-|va di par-|tir-|me,|
w: ~Se|la spe-|ran- za|non|mi man- ten-|es-|se,|
w: |||||||
 c6 | A4 B2 | G4 G2 | F6 | A2 G2 F2 | E6 | F6 | ^F2 G2 A2 | B4 B2 | B2 B2 B2 | B4 B2 | A6 | %19
w: co-|me t'ag-|gio la-|sciat',|o vi- ta|mi-|a,|Se gli~~oc- chi|bel- li|e- ra- no|quel- li|Che|
w: ahi-|mè ch'io|non pen-|sa-|va di par-|tir-|me,|Cru- del for-|tu- na|per- ché con-|tra- ria,|Mi|
w: se|la spe-|ran- za|non|mi man- ten-|es-|se,|Di tor- nar|pres- to,|con la mia|ma- ni|Mi|
w: |||||||~ * *|||||
 A2 A2 A2 | G4 G2 | G2 G2 ^F2 | G6- | G6 | ^F2 G2 A2 | B4 B2 | B2 B2 B2 | B4 B2 | A6 | A2 A2 A2 | %30
w: mi dan la|vi- ta,|mes- chi- no|me!||se gli~~oc- chi|bel- li|e- ra- no|quel- li|che|mi dan la|
w: sei sta- ta|sem- pre,|mes- chi- no|me!||cru- del for-|tu- na|per- ché con-|tra- ria,|Mi|sei sta- ta|
w: da- ria la|mor- te,|mes- chi- no|me!||di tor- nar|pres- to,|con la mia|ma- ni|Mi|da- ria la|
w: ||||||~ *|||||
 G4 G2 | G2 G2 ^F2 | G12 |] %33
w: vi- ta,|mes- chi- no|me!|
w: sem- pre,|mes- chi- no|me!|
w: mor- te,|mes- chi- no|me!|
w: |||
V:2
 F6 | F4 F2 | E4 E2 | F6 | F2 E2 C2 | C6 | C6 | F6 | F4 F2 | E4 E2 | F6 | F2 E2 C2 | C6 | C6 | %14
w: ~Co-|me t'ag-|gio la-|sciat',|o vi- ta|mi-|a,|co-|me t'ag-|gio la-|sciat',|o vi- ta|mi-|a,|
w: ~Ahi-|mè ch'io|non pen-|sa-|va di par-|tir-|me,|ahi-|mè ch'io|non pen-|sa-|va di par-|tir-|me,|
w: ~Se|la spe-|ran- za|non|mi man- ten-|es-|se,|se|la spe-|ran- za|non|mi man- ten-|es-|se,|
w: ||||||||||||||
 D2 D2 F2 | F4 F2 | F2 F2 F2 | F4 F2 | F6 | F2 F2 F2 | D4 _E2 | _E2 D2 D2 | (D3 C=B,C | D6) | %24
w: Se gli~~oc- chi|bel- li|e- ra- no|quel- li|che|mi dan la|vi- ta,|mes- chi- no|me, * * *||
w: Cru- del for-|tu- na|per- ché con-|tra- ria,|Mi|sei sta- ta|sem- pre,|mes- chi- no|me! * * *||
w: Di tor- nar|pres- to,|con la mia|ma- ni|Mi|da- ria la|mor- te,|mes- chi- no|me! * * *||
w: ~ * *||||||||||
 D2 D2 F2 | F4 F2 | F2 F2 F2 | F4 F2 | F6 | F2 F2 F2 | D4 _E2 | _E2 D2 D2 | D12 |] %33
w: se gli~~oc- chi|bel- li|e- ra- no|quel- li|che|mi dan la|vi- ta,|mes- chi- no|me!|
w: cru- del for-|tu- na|per- ché con-|tra- ria,|Mi|sei sta- ta|sem- pre,|mes- chi- no|me!|
w: di tor- nar|pres- to,|con la mia|ma- ni|Mi|da- ria la|mor- te,|mes- chi- no|me!|
w: |~ *||||||||
V:3
 c6 | c4 d2 | c4 c2 | c6 | F2 G2 A2 | G6 | A6 | c6 | c4 d2 | c4 c2 | c6 | F2 G2 A2 | G6 | A6 | %14
w: ~Co-|me t'ag-|gio la-|sciat',|o vi- ta|mi-|a,|co-|me t'ag-|gio la-|sciat'|o vi- ta|mi-|a,|
w: ~Ahi-|mè ch'io|non pen-|sa-|va di par-|tir-|me,|ahi-|mè ch'io|non pen-|sa-|va di par-|tir-|me,|
w: ~Se|la spe-|ran- za|non|mi man- ten-|es-|se,|se|la spe-|ran- za|non|mi man- ten-|es-|se,|
w: ||||||||||||||
 A2 B2 c2 | d4 d2 | d2 d2 d2 | d4 d2 | c6 | c2 c2 c2 | =B4 c2 | c2 A2 A2 | =B6- | B6 | A2 B2 c2 | %25
w: Se gli~~oc- chi|bel- li|e- ra- no|quel- li|che|mi dan la|vi- ta,|mes- chi- no|me,||se gli~~oc- chi|
w: Cru- del for-|tu- na|per- ché con-|tra- ria,|Mi|sei sta- ta|sem- pre,|mes- chi- no|me!||cru- del for-|
w: Di tor- nar|pres- to,|con la mia|ma- ni|Mi|da- ria la|mor- te,|mes- chi- no|me!||di tor- nar|
w: ~ * *|||||||||||
 d4 d2 | d2 d2 d2 | d4 d2 | c6 | c2 c2 c2 | =B4 c2 | c2 A2 A2 | =B12 |] %33
w: bel- li|e- ra- no|quel- li|che|mi dan la|vi- ta,|mes- chi- no|me!|
w: tu- na|per- ché con-|tra- ria,|Mi|sei sta- ta|sem- pre,|mes- chi- no|me!|
w: pres- to,|con la mia|ma- ni|Mi|da- ria la|mor- te,|mes- chi- no|me!|
w: ~ *||||||||
V:4
 F,6 | F,4 B,,2 | C,4 C,2 | F,6 | D,2 E,2 F,2 | C,6 | F,6 | F,6 | F,4 B,,2 | C,4 C,2 | F,6 | %11
w: ~Co-|me t'ag-|gio la-|sciat',|o vi- ta|mi-|a,|co-|me t'ag-|gio la-|sciat',|
w: ~Ahi-|mè ch'io|non pen-|sa-|va di par-|tir-|me,|ahi-|mè ch'io|non pen-|sa-|
w: ~Se|la spe-|ran- za|non|mi man- ten-|es-|se,|se|la spe-|ran- za|non|
w: |||||||||||
 D,2 E,2 F,2 | C,6 | F,6 | D,2 G,2 F,2 | B,,4 B,,2 | B,,2 B,,2 B,,2 | B,,4 B,,2 | F,6 | %19
w: o vi- ta|mi-|a,|Se gli~~oc- chi|bel- li|e- ra- no|quel- li|che|
w: va di par-|tir-|me,|Cru- del for-|tu- na|per- ché con-|tra- ria,|Mi|
w: mi man- ten-|es-|se,|Di tor- nar|pres- to,|con la mia|ma- ni|Mi|
w: |||~ * *|||||
 F,2 F,2 F,2 | G,4 C,2 | C,2 D,2 D,2 | G,6- | G,6 | D,2 G,2 F,2 | B,,4 B,,2 | B,,2 B,,2 B,,2 | %27
w: mi dan la|vi- ta,|mes- chi- no|me,||se gli~~oc- chi|bel- li|e- ra- no|
w: sei sta- ta|sem- pre,|mes- chi- no|me!||cru- del for-|tu- na|per- ché con-|
w: da- ria la|mor- te,|mes- chi- no|me!||di tor- nar|pres- to,|con la mia|
w: ||||||~ *||
 B,,4 B,,2 | F,6 | F,2 F,2 F,2 | G,4 C,2 | C,2 D,2 D,2 | G,,12 |] %33
w: quel- li|che|mi dan la|vi- ta,|mes- chi- no|me!|
w: tra- ria,|Mi|sei sta- ta|sem- pre,|mes- chi- no|me!|
w: ma- ni|Mi|da- ria la|mor- te,|mes- chi- no|me!|
w: ||||||

